X:248
T:Hellie Shumra
M:C
L:1/8
Q:1/4=3D140
K:Eb
E>EE>F G2G2|F2F2 E2E2|E>EE>F G2G2|F2F2 E4|
e>ee>c B2B2|A2A2 E2E2|e>ee>c B2B2|F2F2 E4||
